source/images/icon-yml.svg

<?xml version="1.0" encoding="UTF-8"?>
<svg width="119px" height="87px" viewBox="0 0 119 87" version="1.1" xmlns="http://www.w3.org/2000/svg" xmlns:xlink="http://www.w3.org/1999/xlink">
    <!-- Generator: Sketch 41.2 (35397) - https://www.sketchapp.com -->
    <title>icon-yml</title>
    <desc>Created with Sketch.</desc>
    <defs></defs>
    <g id="Updated-HOME-+-icons" stroke="none" stroke-width="1" fill="none" fill-rule="evenodd">
        <g id="Artboard" transform="translate(-118.000000, -1211.000000)">
            <g id="icon-yml" transform="translate(118.000000, 1212.000000)">
                <path d="M116.1097,27.9629 C116.1097,22.3409 111.5527,17.7859 105.9307,17.7859 C105.2067,17.7859 104.5017,17.8609 103.8217,18.0049 C103.8217,17.9629 103.8247,17.9319 103.8247,17.8919 C103.8247,8.5299 96.2327,0.9389 86.8717,0.9389 C80.8397,0.9389 75.5517,4.0949 72.5477,8.8389 C80.4267,14.2179 85.6017,23.2679 85.6017,33.5329 C85.6017,33.5989 85.5947,33.6609 85.5947,33.7309 C86.7957,33.4769 88.0377,33.3409 89.3137,33.3409 C94.0247,33.3409 98.2987,35.1709 101.4997,38.1419 L105.9307,38.1419 C111.5527,38.1419 116.1097,33.5879 116.1097,27.9629 Z" id="Stroke-1" stroke="#0093C9" stroke-width="3.878"></path>
                <path d="M101.2413,35.3026 C98.0403,32.3316 93.7663,30.5016 89.0553,30.5016 C87.7793,30.5016 86.5363,30.6376 85.3353,30.8916 C85.3353,30.8226 85.3423,30.7596 85.3423,30.6936 C85.3423,20.4286 80.1683,11.3796 72.2883,6.0006 C67.4963,2.7286 61.7043,0.8136 55.4643,0.8136 C41.5293,0.8136 29.8223,10.3586 26.5203,23.2616 C25.0043,22.9306 23.4313,22.7496 21.8163,22.7496 C9.7683,22.7496 0.0003,32.5146 0.0003,44.5656 C0.0003,56.6136 9.7683,66.3786 21.8163,66.3786 L30.7043,66.3786 L30.7043,24.9036 L76.2893,24.9036 L76.2893,66.3786 L89.0553,66.3786 C98.9603,66.3786 106.9933,58.3506 106.9933,48.4406 C106.9933,43.2426 104.7713,38.5776 101.2413,35.3026" id="Fill-3" fill="#0093C9"></path>
                <polygon id="Fill-5" fill="#0093C9" points="45.5179 30.3471 49.4919 39.6651 44.4339 39.6651 46.1069 43.7661 56.3569 43.7661"></polygon>
                <polygon id="Fill-7" fill="#0093C9" points="49.5048 52.2843 52.8528 60.1713 46.8928 60.1713 57.9118 73.5923 53.9378 64.2723 58.9958 64.2723 57.3038 60.1713 54.9568 60.1713 51.6068 52.2843"></polygon>
                <path d="M60.3602,47.8697 C60.4842,47.8697 60.7742,47.7147 60.7742,46.2897 C60.7742,44.8667 60.4842,44.7127 60.3602,44.7127 L53.2992,44.7127 L54.6402,47.8697 L60.3602,47.8697 Z" id="Fill-9" fill="#0093C9"></path>
                <path d="M56.2467,51.6555 L60.9907,51.6545 C61.1157,51.6545 61.4047,51.5005 61.4047,50.0755 C61.4047,48.6515 61.1157,48.4975 60.9907,48.4975 L54.9067,48.4985 L56.2467,51.6555 Z" id="Fill-11" fill="#0093C9"></path>
                <path d="M60.3602,56.0701 L53.9812,56.0701 L55.3202,59.2261 L60.3602,59.2261 C60.4842,59.2261 60.7742,59.0731 60.7742,57.6491 C60.7742,56.2251 60.4842,56.0701 60.3602,56.0701" id="Fill-13" fill="#FEFEFE"></path>
                <path d="M60.9904,52.2843 L52.3734,52.2843 L53.7134,55.4413 L60.9904,55.4413 C61.1164,55.4413 61.4044,55.2863 61.4044,53.8633 C61.4044,52.4393 61.1164,52.2843 60.9904,52.2843" id="Fill-15" fill="#FEFEFE"></path>
                <path d="M60.3602,56.0701 L53.9812,56.0701 L55.3202,59.2261 L60.3602,59.2261 C60.4842,59.2261 60.7742,59.0731 60.7742,57.6491 C60.7742,56.2251 60.4842,56.0701 60.3602,56.0701" id="Fill-17" fill="#0093C9"></path>
                <path d="M60.9904,52.2843 L52.3734,52.2843 L53.7134,55.4413 L60.9904,55.4413 C61.1164,55.4413 61.4044,55.2863 61.4044,53.8633 C61.4044,52.4393 61.1164,52.2843 60.9904,52.2843" id="Fill-19" fill="#0093C9"></path>
                <path d="M51.3394,51.6542 L49.7324,47.8672 L50.4994,47.8672 L52.1064,51.6542 L55.5184,51.6552 L52.5714,44.7132 L45.2134,44.7132 C44.6464,44.7132 44.3344,44.7132 44.0794,45.5342 C43.7734,46.5152 43.7374,48.3662 43.7374,51.9692 C43.7374,55.5712 43.7734,57.4232 44.0794,58.4032 C44.3344,59.2252 44.6464,59.2252 45.2134,59.2252 L51.6684,59.2262 L48.4704,51.6532 L51.3394,51.6542 Z" id="Fill-21" fill="#0093C9"></path>
                <polygon id="Fill-23" fill="#0093C9" points="78.3784 74.1941 66.7164 74.1941 66.7164 85.8561"></polygon>
                <polygon id="Stroke-25" stroke="#0093C9" stroke-width="3.878" points="30.7043 24.9039 30.7043 83.7669 63.0553 83.7669 63.0553 70.5329 76.2893 70.5329 76.2893 24.9039"></polygon>
            </g>
        </g>
    </g>
</svg>

<svg height="87" viewBox="0 0 119 87" width="119" xmlns="http://www.w3.org/2000/svg"><g fill="none" fill-rule="evenodd" transform="translate(0 1)"><path d="m116.1097 27.9629c0-5.622-4.557-10.177-10.179-10.177-.724 0-1.429.075-2.109.219 0-.042.003-.073.003-.113 0-9.362-7.592-16.953-16.953-16.953-6.032 0-11.32 3.156-14.324 7.9 7.879 5.379 13.054 14.429 13.054 24.694 0 .066-.007.128-.007.198 1.201-.254 2.443-.39 3.719-.39 4.711 0 8.985 1.83 12.186 4.801h4.431c5.622 0 10.179-4.554 10.179-10.179z" stroke="#0093c9" stroke-width="3.878"/><g fill="#0093c9"><path d="m101.2413 35.3026c-3.201-2.971-7.475-4.801-12.186-4.801-1.276 0-2.519.136-3.72.39 0-.069.007-.132.007-.198 0-10.265-5.174-19.314-13.054-24.693-4.792-3.272-10.584-5.187-16.824-5.187-13.935 0-25.642 9.545-28.944 22.448-1.516-.331-3.089-.512-4.704-.512-12.048 0-21.816 9.765-21.816 21.816 0 12.048 9.768 21.813 21.816 21.813h8.888v-41.475h45.585v41.475h12.766c9.905 0 17.938-8.028 17.938-17.938 0-5.198-2.222-9.863-5.752-13.138"/><path d="m45.5179 30.3471 3.974 9.318h-5.058l1.673 4.101h10.25z"/><path d="m49.5048 52.2843 3.348 7.887h-5.96l11.019 13.421-3.974-9.32h5.058l-1.692-4.101h-2.347l-3.35-7.887z"/><path d="m60.3602 47.8697c.124 0 .414-.155.414-1.58 0-1.423-.29-1.577-.414-1.577h-7.061l1.341 3.157z"/><path d="m56.2467 51.6555 4.744-.001c.125 0 .414-.154.414-1.579 0-1.424-.289-1.578-.414-1.578l-6.084.001z"/></g><path d="m60.3602 56.0701h-6.379l1.339 3.156h5.04c.124 0 .414-.153.414-1.577s-.29-1.579-.414-1.579" fill="#fefefe"/><path d="m60.9904 52.2843h-8.617l1.34 3.157h7.277c.126 0 .414-.155.414-1.578 0-1.424-.288-1.579-.414-1.579" fill="#fefefe"/><g fill="#0093c9"><path d="m60.3602 56.0701h-6.379l1.339 3.156h5.04c.124 0 .414-.153.414-1.577s-.29-1.579-.414-1.579"/><path d="m60.9904 52.2843h-8.617l1.34 3.157h7.277c.126 0 .414-.155.414-1.578 0-1.424-.288-1.579-.414-1.579"/><path d="m51.3394 51.6542-1.607-3.787h.767l1.607 3.787 3.412.001-2.947-6.942h-7.358c-.567 0-.879 0-1.134.821-.306.981-.342 2.832-.342 6.435 0 3.602.036 5.454.342 6.434.255.822.567.822 1.134.822l6.455.001-3.198-7.573z"/><path d="m78.3784 74.1941h-11.662v11.662z"/></g><path d="m30.7043 24.9039v58.863h32.351v-13.234h13.234v-45.629z" stroke="#0093c9" stroke-width="3.878"/></g></svg>
